X:127
T:Miss Graham of Inchbrakie
S:James Davie: Davie's Caledonian Flutist, Aberdeen c.1842 (NLS MH.s.11)
M:C
L:1/16
Q:1/4=72 "Slowly and Energetic"
K:D
A2|d3e ({de}f3)e ({e}d2)B2A2F2          |D2d2 ({e}d2)cd         e2E2E2A2|\
   d3e ({de}f3)e     edcB        BAGF   |A2A2     B2c2     ({de}d6)
A2|d3e ({de}f3)e    (ed)(cB)    (AG)(FE)|D2d2  {e}d2cd          e2E2E2A2|\
   d3e ({de}f3)e    (ed)(c{e}d) (BA)(GF)|A2A2     B2(Tc2{Bc})   d6     ||
fg|a3b              bagf         d'2a2f2d2           |g2({agfg})b>g  f2({gfef})a>f        Te3d  e2(fg) |\
   a3b             (ba)(gf) ({c'}d'2)a2({g}f2)d2     |g2({agfg})b>g (fe)(dc)               d3e (de)(fg)|
   a3({baga})b     (ba)(gf)     (d'c')(c'b) (ba)(af) |ga/b/     a>g (f/a/d'/c'/ b/a/g/f/) Te3d  e2f2   |\
   A3({BA^GA})d ({d}f3)e        (ed)(cB)    (BA)(=GF)|A3A            B2Tc2             ({e}d6)        |]

